X:1
T:Billy Boy
M:4/4
L:1/8
K:C
 D2| G2 GG G2 BG| D2 EE D2 D2| G2 GG G2 AG| B d6 d| BB BA G2 BB| A2 AG E2 GE|\
 D2 G2 G2 ED| D2 G4||
